flaticon/gastronomy/tenderizer.svg

<svg xmlns="http://www.w3.org/2000/svg" width="32" height="32" viewBox="0 0 24 24">
    <path d="M 23.585938 2.261719 C 24.050781 1.796875 24.128906 1.0625 23.765625 0.550781 C 23.542969 0.234375 23.191406 0.0351562 22.808594 0.00390625 C 22.421875 -0.0273438 22.050781 0.109375 21.777344 0.382812 L 12.125 10.035156 C 11.636719 10.523438 10.882812 10.660156 10.253906 10.375 C 9.5 10.03125 8.820312 9.5625 8.230469 8.972656 L 6.074219 6.8125 C 5.890625 6.632812 5.636719 6.554688 5.386719 6.601562 C 5.132812 6.648438 4.921875 6.820312 4.816406 7.054688 C 4.707031 7.300781 4.664062 7.582031 4.683594 7.859375 C 4.214844 7.820312 3.742188 7.960938 3.40625 8.300781 C 3.082031 8.625 2.9375 9.089844 2.972656 9.554688 C 2.957031 9.550781 2.945312 9.550781 2.929688 9.550781 C 2.453125 9.523438 2.027344 9.679688 1.714844 9.992188 C 1.378906 10.328125 1.234375 10.800781 1.273438 11.269531 C 0.996094 11.25 0.714844 11.292969 0.46875 11.402344 C 0.234375 11.503906 0.0664062 11.71875 0.0195312 11.96875 C -0.0273438 12.21875 0.0507812 12.476562 0.230469 12.65625 L 4.925781 17.355469 L 5.191406 17.25 C 5.660156 17.0625 6.179688 17.152344 6.523438 17.496094 C 6.851562 17.824219 6.945312 18.34375 6.757812 18.8125 L 6.652344 19.078125 L 11.347656 23.773438 C 11.492188 23.921875 11.6875 24 11.890625 24 C 11.9375 24 11.988281 23.996094 12.035156 23.988281 C 12.285156 23.941406 12.5 23.769531 12.601562 23.535156 C 12.710938 23.289062 12.753906 23.007812 12.734375 22.730469 C 13.207031 22.773438 13.675781 22.628906 14.015625 22.289062 C 14.339844 21.964844 14.484375 21.496094 14.445312 21.03125 C 14.910156 21.066406 15.378906 20.925781 15.703125 20.597656 C 16.042969 20.261719 16.1875 19.789062 16.144531 19.320312 C 16.421875 19.339844 16.703125 19.296875 16.949219 19.1875 C 17.1875 19.085938 17.355469 18.871094 17.402344 18.621094 C 17.449219 18.371094 17.371094 18.113281 17.191406 17.933594 L 15.03125 15.773438 C 14.445312 15.1875 13.972656 14.507812 13.628906 13.75 C 13.34375 13.121094 13.480469 12.371094 13.96875 11.882812 Z M 22.394531 0.996094 C 22.484375 0.90625 22.609375 0.863281 22.738281 0.871094 C 22.8125 0.878906 22.953125 0.910156 23.058594 1.054688 C 23.175781 1.21875 23.136719 1.480469 22.972656 1.648438 L 19.320312 5.300781 L 18.703125 4.6875 Z M 1.792969 12.375 L 2.40625 11.757812 C 2.085938 11.4375 2.046875 10.886719 2.328125 10.605469 C 2.613281 10.324219 3.160156 10.359375 3.480469 10.683594 L 4.097656 10.066406 C 3.777344 9.746094 3.738281 9.195312 4.019531 8.914062 C 4.300781 8.632812 4.851562 8.667969 5.171875 8.992188 L 5.789062 8.375 C 5.59375 8.183594 5.507812 7.828125 5.570312 7.542969 L 6.359375 8.332031 L 1.746094 12.945312 L 0.957031 12.152344 C 1.242188 12.089844 1.597656 12.179688 1.792969 12.375 Z M 15.628906 18.214844 L 15.011719 18.832031 C 15.335938 19.152344 15.371094 19.703125 15.089844 19.984375 C 14.808594 20.265625 14.257812 20.226562 13.9375 19.90625 L 13.324219 20.523438 C 13.476562 20.675781 13.574219 20.894531 13.585938 21.125 C 13.59375 21.253906 13.578125 21.496094 13.398438 21.675781 C 13.117188 21.957031 12.570312 21.917969 12.246094 21.597656 L 11.632812 22.210938 C 11.824219 22.40625 11.914062 22.761719 11.851562 23.046875 L 11.058594 22.257812 L 15.671875 17.644531 L 16.464844 18.433594 C 16.179688 18.5 15.824219 18.410156 15.628906 18.214844 Z M 12.839844 14.109375 C 13.222656 14.960938 13.753906 15.726562 14.417969 16.386719 L 15.058594 17.027344 L 10.445312 21.640625 L 7.65625 18.851562 C 7.835938 18.136719 7.644531 17.386719 7.125 16.863281 C 6.613281 16.355469 5.867188 16.167969 5.152344 16.347656 L 2.363281 13.558594 L 6.976562 8.945312 L 7.617188 9.589844 C 8.277344 10.25 9.042969 10.78125 9.894531 11.167969 C 10.851562 11.601562 11.992188 11.394531 12.738281 10.652344 L 18.089844 5.300781 L 18.703125 5.914062 L 13.355469 11.265625 C 12.609375 12.011719 12.402344 13.152344 12.839844 14.109375 Z M 12.839844 14.109375"/>
</svg>

<svg xmlns="http://www.w3.org/2000/svg" width="32" height="32" viewBox="0 0 24 24">
    <path d="M23.586 2.262c.465-.465.543-1.2.18-1.711a1.3 1.3 0 0 0-.957-.547 1.299 1.299 0 0 0-1.032.379l-9.652 9.652a1.68 1.68 0 0 1-1.871.34A6.887 6.887 0 0 1 8.23 8.973l-2.156-2.16a.774.774 0 0 0-1.258.242 1.7 1.7 0 0 0-.132.804c-.47-.039-.942.102-1.278.442-.324.324-.469.789-.433 1.254-.016-.004-.028-.004-.043-.004-.477-.028-.903.129-1.215.441-.336.336-.48.809-.442 1.278a1.7 1.7 0 0 0-.804.132.773.773 0 0 0-.239 1.254l4.696 4.7.265-.106c.47-.188.989-.098 1.332.246.329.328.422.848.235 1.317l-.106.265 4.696 4.695c.144.149.34.227.543.227a.778.778 0 0 0 .71-.465 1.7 1.7 0 0 0 .133-.805c.473.043.942-.101 1.282-.44.324-.325.468-.794.43-1.259.464.035.933-.105 1.257-.433.34-.336.485-.809.442-1.278a1.7 1.7 0 0 0 .804-.133.771.771 0 0 0 .242-1.254l-2.16-2.16a6.859 6.859 0 0 1-1.402-2.023 1.675 1.675 0 0 1 .34-1.867zM22.395.996a.444.444 0 0 1 .343-.125c.075.008.215.04.32.184.118.164.079.425-.085.593L19.32 5.301l-.617-.614zM1.793 12.375l.613-.617c-.32-.32-.36-.871-.078-1.153.285-.28.832-.246 1.152.079l.618-.618c-.32-.32-.36-.87-.078-1.152.28-.281.832-.246 1.152.078l.617-.617c-.195-.191-.281-.547-.219-.832l.79.789-4.614 4.613-.789-.793c.285-.062.64.028.836.223zm13.836 5.84l-.617.617c.324.32.36.871.078 1.152-.281.282-.832.243-1.152-.078l-.614.617c.153.153.25.372.262.602.008.129-.008.371-.188.55-.28.282-.828.243-1.152-.077l-.613.613c.191.195.281.55.219.836l-.793-.79 4.613-4.612.793.789c-.285.066-.64-.024-.836-.22zm-2.79-4.106a7.586 7.586 0 0 0 1.579 2.278l.64.64-4.613 4.614-2.789-2.79a2.083 2.083 0 0 0-.531-1.988c-.512-.508-1.258-.695-1.973-.515l-2.789-2.79 4.614-4.613.64.645a7.73 7.73 0 0 0 2.278 1.578 2.555 2.555 0 0 0 2.843-.516l5.352-5.351.613.613-5.348 5.352a2.541 2.541 0 0 0-.515 2.843zm0 0"/>
</svg>
